P1
# DaeMoon-pairing-DaeMoon-pairing-DaeMoon-pairing-DaeMoon-pairing-DaeMoon-pairing-DaeMoon-pairing-DaeMoon-pairing-DaeMoon-pairing-
49 49
1111111010101101000110101110111011101100101111111
1000001000110001001010011100010001000111101000001
1011101011001011001010001111000100000101101011101
1011101001010111101101100010011101010101001011101
1011101001000110110111111111001110101000001011101
1000001010011000101101100011101100001010001000001
1111111010101010101010101010101010101010101111111
0000000001001000111001100010100111101110000000000
1010001100111000110101111110110010001011000100101
0101110001001111010100010100010101011101010100101
0001101110110010011111011100110101000111000000111
1010110100011101000101011001100010001110011011001
1111011001111011000111001010101011011001000011000
1110100011000001011111110101010111011101010001101
0011001110100100011101010101010001001100010010101
1000110001101010000111101110011001100011100111000
1100101010100100011111101010010001000011010011001
1001100011011101000101011100111011101100010100000
1001011111000110100011100000011001100100010100101
1110000000011111101111001110111001001011000011010
0001101011010011100101011100110011101011001011001
0111100000010100111101111111100101010101010111101
1111111110001110000010111110010001011001111110101
1110100010101001011000100010001011101100100011001
0110101010100110111101101010101011001111101010011
1100100011101100010100100011010100010100100011101
1000111110010010010010111110010111000100111111001
0011000010100011011111010000110010101111101111011
1101101001101001101011111100101010101101011101000
1110110100010101101000111101010101001000000001100
1101001000000001100010010011111001000100101100001
0110010110000001000000011011000100000111101111000
0111001000100001010101110011101110111101000111011
1011010010111110101000110101000100010100101101001
1001111111100100001001101011101110100100111010101
0110010110100010100100100000111010001001101111010
1111001011010100011101110110101110101101110101111
1101010010011101010100110001110111000101110100011
0100011011010010010110001010000011011100001011101
0111000001010101010001011010111011100001101001010
1110001001110010001110111111110010101011111111010
0000000011101100100100100011110001010101100011001
1111111010110010111010101010110110001101101010001
1000001001010001000100100010111001101111100010011
1011101000000101011110111110101011001010111111000
1011101001011100110111101000010101010100110011100
1011101011011111111100001011110011010000101010010
1000001000001011100110101000011001101101010101000
1111111011000001010100100010010001011001111001001
