P1
# https://daemoon.example/pair#K7QW-2M9X
29 29
11111110011011100011101111111
10000010000110011000001000001
10111010110100111000101011101
10111010100110100111001011101
10111010100011111111101011101
10000010100010010100001000001
11111110101010101010101111111
00000000110010000000000000000
10111110011110011100101111100
01011000101111000001111110001
11001110111001111010101110000
01110101010011011010101101010
11010011011000100101000001100
01010001110010000011111110001
01011110101100011010101111100
01000001011000101000001110010
01011111101100011100000001100
11001101001011111111111110101
10101011000001111010001110100
10011000011011010000011010010
10111011001110111101111110111
00000000111110011001100011111
11111110011000011111101011100
10000010110110101011100010011
10111010111100011110111110100
10111010111011100011010001111
10111010101101011111011111110
10000010010100100000101011010
11111110100011100001011110100
