P1
# DAEMOON|1|https://192.168.1.13:8443|493747
29 29
11111110110001001100101111111
10000010101111000011101000001
10111010110101010000101011101
10111010001111110111101011101
10111010110011001101101011101
10000010001010000000001000001
11111110101010101010101111111
00000000001011010010100000000
10011111101010010111110010111
11100001100100011101110111001
01010010011011110110000111100
00001001000000100110001011011
11010011110000110010001001101
11101101110101010110111110000
11100010010100111101111010101
10110101001100000010101001111
11001110101011111010000100110
11101001110010111101010011101
11111111111101011111011110001
11000000000001100000011100100
11100011010000000110111111001
00000000101110011110100011001
11111110101101010001101010000
10000010101010111110100011000
10111010111111100011111110010
10111010101011110000000100001
10111010001010010010100111011
10000010001001111000000110101
11111110100101111010111111000
