P1
# DAEMOON|1|http://192.168.1.13:8080|000042
29 29
11111110010000100001001111111
10000010001110010100101000001
10111010101010010010001011101
10111010110101011110101011101
10111010100110100101001011101
10000010100000010010001000001
11111110101010101010101111111
00000000111010011011100000000
10111110000111001111001111100
00001001010110101111001111110
10010110101000010100000011000
00100100101000010011010111000
11001111001011011110100100000
00111000010100100001001111110
11100110011000110010110011100
01001000010100010000010001000
10110110000011001111110000010
10000100111110100111001111110
10011010101011010100111011100
10001100110100010010011101010
10111111011100011110111110000
00000000110011000001100011110
11111110001111110011101010100
10000010100001010000100011000
10111010110110101110111111111
10111010100110000001110101111
10111010110000110111111110010
10000010001010100000101110010
11111110110101001110001011100
