P1
# http://192.168.1.13:8080/pair?code=493747&d=3ds
33 33
111111101000110100001011101111111
100000100001011000111100101000001
101110100110001011100100101011101
101110101110100111010001101011101
101110101111100010010101101011101
100000101101000100101000001000001
111111101010101010101010101111111
000000001100001001011111100000000
100010111010100111100101011111001
110111011001101111001001100001110
010011101011011100100101110001010
010010001101010110010111011000000
101011110111010110000110011111001
110100000000001001111111100001100
001011101000110101001001000000010
111110001000010111000111110111000
001100111101110001110100011011010
101011001100101110001011100001110
010101110101100101001011010001010
000011010101100111110100100000011
110100110101000000111001111111000
111010011000111010010001000001010
000001100111010011010111001010010
001001000011011001011100110101011
110110100101000101100100111111000
000000001110001111101100100010110
111111101111011110101000101011010
100000100111100110000011100011011
101110101000110010010010111111011
101110100111110001111100011011110
101110100100111100101001011111000
100000100100001111100111110101000
111111101010011011010100100011001
